assets/icons/qvision/crop.svg

<svg xmlns="http://www.w3.org/2000/svg" height="24" viewBox="0 0 24 24" width="24"><path d="M0 0h24v24H0z" fill="none"/><path d="M17 15h2V7c0-1.1-.9-2-2-2H9v2h8v8zM7 17V1H5v4H1v2h4v10c0 1.1.9 2 2 2h10v4h2v-4h4v-2H7z"/></svg>

<svg width="24" height="24" viewBox="0 0 24 24" fill="none" xmlns="http://www.w3.org/2000/svg">
<g clip-path="url(#clip0_147_3324)">
<path d="M17 15H19V7C19 5.9 18.1 5 17 5H9V7H17V15ZM7 17V1H5V5H1V7H5V17C5 18.1 5.9 19 7 19H17V23H19V19H23V17H7Z" fill="#323232"/>
</g>
<defs>
<clipPath id="clip0_147_3324">
<rect width="24" height="24" fill="white"/>
</clipPath>
</defs>
</svg>
